img/footer-btn-arrow.svg

<svg width="18" height="10" viewBox="0 0 18 10" fill="none" xmlns="http://www.w3.org/2000/svg">
<path d="M13.9017 5.44677H0.5V4.45273H13.9017H15.1088L14.2553 3.59918L12.0703 1.41421L12.7774 0.707106L17.0201 4.94975L12.7774 9.19239L12.0703 8.48528L14.2553 6.30032L15.1088 5.44677H13.9017Z" fill="white" stroke="white"/>
</svg>

<svg width="18" height="10" fill="none" xmlns="http://www.w3.org/2000/svg"><path d="M13.902 5.447H.5v-.994h14.609l-.854-.854-2.185-2.185.707-.707L17.02 4.95l-4.243 4.242-.707-.707L14.255 6.3l.854-.853h-1.207Z" fill="#fff" stroke="#fff"/></svg>
